src/images/pages/trade-explanation/zh_cn/up.svg

<?xml version="1.0" encoding="UTF-8"?>
<svg width="299px" height="197px" viewBox="0 0 299 197" version="1.1" xmlns="http://www.w3.org/2000/svg" xmlns:xlink="http://www.w3.org/1999/xlink">
    <!-- Generator: Sketch 52.6 (67491) - http://www.bohemiancoding.com/sketch -->
    <title>up</title>
    <desc>Created with Sketch.</desc>
    <g id="Page-1" stroke="none" stroke-width="1" fill="none" fill-rule="evenodd">
        <g id="up">
            <polygon id="Path" fill="#F1F2F2" points="0 0 299 0 299 197 0 197"></polygon>
            <path d="M1.98671096,1.9798995 L1.98671096,195.020101 L297.013289,195.020101 L297.013289,1.9798995 L1.98671096,1.9798995 Z M299,0 L299,197 L0,197 L0,0 L299,0 Z" id="Path" fill="#C2C2C2" fill-rule="nonzero"></path>
            <path d="M4,54.0670861 L4,52.8631465 L294,52.8631465 L294,54.0670861 L4,54.0670861 Z M4,76.3926677 L4,75.188728 L294,75.188728 L294,76.3926677 L4,76.3926677 Z M4,94.9973189 L4,93.7933792 L294,93.7933792 L294,94.9973189 L4,94.9973189 Z M4,135.927552 L4,134.723612 L294,134.723612 L294,135.927552 L4,135.927552 Z M4,154.532203 L4,153.328263 L294,153.328263 L294,154.532203 L4,154.532203 Z M4,176.857784 L4,175.653845 L294,175.653845 L294,176.857784 L4,176.857784 Z M38.72025,33 L39.9207756,33 L39.9207756,193 L38.72025,193 L38.72025,33 Z M75.8997371,33 L77.1002628,33 L77.1002628,193 L75.8997371,193 L75.8997371,33 Z M113.079225,33 L114.27975,33 L114.27975,193 L113.079225,193 L113.079225,33 Z M146.540763,33 L147.741288,33 L147.741288,193 L146.540763,193 L146.540763,33 Z M183.720249,33 L184.920775,33 L184.920775,193 L183.720249,193 L183.720249,33 Z M220.899737,33 L222.100263,33 L222.100263,193 L220.899737,193 L220.899737,33 Z M258.079224,33 L259.279749,33 L259.279749,193 L258.079224,193 L258.079224,33 Z" id="Shape" fill="#DFDEDE" fill-rule="nonzero"></path>
            <polygon id="Path" fill="#2A3052" fill-rule="nonzero" points="2.90644108 116.819829 2.90644108 115.604864 294.513238 115.604864 294.513238 116.819829"></polygon>
            <polygon id="Path" fill="#C2C2C2" fill-rule="nonzero" points="0.799346801 34.7797904 0.799346801 32.3494829 294.362731 32.3494829 294.362731 34.7797904"></polygon>
            <path d="M187.239564,147.191156 L152.058614,147.191156 L146.640372,138.96769 L141.22213,147.191156 L106.041181,147.191156 C103.407313,147.191156 101.300218,149.33151 101.300218,151.997566 L101.300218,176.818164 C101.300218,179.484219 103.444939,181.624573 106.041181,181.624573 L187.27719,181.624573 C189.911058,181.624573 192.018152,179.484219 192.018152,176.818164 L192.018152,151.997566 C192.018152,149.33151 189.873431,147.191156 187.239564,147.191156 Z" id="Path" fill="#E88024"></path>
            <path d="M27.784,16.237 L26.696,16.237 L26.696,21.643 C27.24,21.422 27.784,21.15 28.328,20.81 L28.634,22.425 C27.631,22.969 26.475,23.411 25.183,23.751 L24.452,22.204 C24.86,22.051 25.081,21.83 25.081,21.524 L25.081,16.237 L24.095,16.237 L24.095,14.622 L25.081,14.622 L25.081,8.094 L26.696,8.094 L26.696,14.622 L31.269,14.622 L31.269,16.237 L29.263,16.237 C29.416,18.787 30.181,20.946 31.541,22.714 L30.334,23.904 C28.787,21.728 27.937,19.178 27.784,16.237 Z M21.273,13.993 L21.103,16.271 L23.823,16.271 C23.823,19.144 23.738,21.065 23.568,22.034 C23.398,23.02 22.65,23.547 21.324,23.649 C21.018,23.649 20.695,23.615 20.372,23.581 L19.964,22.017 C20.27,22.051 20.593,22.085 20.933,22.085 C21.545,22.085 21.885,21.813 21.987,21.286 C22.072,20.742 22.123,19.62 22.123,17.886 L19.369,17.886 L19.76,12.344 L22.055,12.344 L22.055,10.202 L19.624,10.202 L19.624,8.57 L23.772,8.57 L23.772,13.993 L21.273,13.993 Z M17.176,8.23 C18.111,9.046 18.91,9.845 19.556,10.644 L18.332,11.868 C17.771,11.086 16.989,10.253 15.986,9.369 L17.176,8.23 Z M16.802,12.293 C17.72,13.109 18.502,13.942 19.148,14.758 L17.941,15.965 C17.397,15.183 16.615,14.35 15.612,13.432 L16.802,12.293 Z M17.652,16.866 L19.182,17.478 C18.604,19.637 17.975,21.677 17.295,23.581 L15.731,22.901 C16.462,20.929 17.108,18.906 17.652,16.866 Z M30.232,8.944 L31.473,9.947 C30.402,11.749 29.144,13.058 27.699,13.908 L26.815,12.684 C28.141,11.851 29.28,10.61 30.232,8.944 Z" id="涨" fill="#000000" fill-rule="nonzero"></path>
            <g id="Group" transform="translate(38.000000, 63.000000)">
                <path d="M34.1447863,31.2805909 L8.91547623,54.504784 C8.18206709,55.1799049 7.04022786,55.132653 6.36510693,54.3992439 C5.68998599,53.6658348 5.73723791,52.5239955 6.47064705,51.8488746 L32.9759553,27.4500941 C33.6887565,26.7939432 34.7924433,26.817575 35.4765055,27.503635 L70.0274339,62.1554679 L101.819689,16.4858607 C102.479643,15.5378361 103.847911,15.4451251 104.629718,16.2954589 L149.880274,65.5123068 L188.022702,-0.244794021 C188.529784,-1.11899793 189.655787,-1.40652911 190.519923,-0.882473481 L214.990821,13.9579168 C215.843163,14.4748204 216.11509,15.5848138 215.598187,16.4371563 C215.081283,17.2894989 213.97129,17.5614259 213.118947,17.0445222 L190.221787,3.15852628 L151.7725,69.4446477 C151.161965,70.497203 149.706089,70.6563891 148.882525,69.7606387 L103.496098,20.3960097 L71.7559098,65.9908223 C71.1130035,66.9143579 69.7909656,67.0308733 68.9964363,66.2340236 L34.1447863,31.2805909 Z" id="Path" fill="#2A3052" fill-rule="nonzero"></path>
                <ellipse id="Oval" fill="#FFFFFF" opacity="0.6" cx="214.054884" cy="15.5012195" rx="7.60753767" ry="7.85487805"></ellipse>
                <path d="M214.054884,24.5595477 C209.179941,24.5595477 205.243896,20.4955321 205.243896,15.5012195 C205.243896,10.5069069 209.179941,6.44289128 214.054884,6.44289128 C218.929827,6.44289128 222.865872,10.5069069 222.865872,15.5012195 C222.865872,20.4955321 218.929827,24.5595477 214.054884,24.5595477 Z M214.054884,22.1526474 C217.582995,22.1526474 220.458972,19.1831656 220.458972,15.5012195 C220.458972,11.8192734 217.582995,8.84979161 214.054884,8.84979161 C210.526773,8.84979161 207.650796,11.8192734 207.650796,15.5012195 C207.650796,19.1831656 210.526773,22.1526474 214.054884,22.1526474 Z" id="Oval" fill="#E88024" fill-rule="nonzero"></path>
                <ellipse id="Oval" fill="#FFFFFF" opacity="0.6" cx="7.69212671" cy="53.1768293" rx="7.60753767" ry="7.85487805"></ellipse>
                <path d="M7.69306164,62.2351575 C2.81811857,62.2351575 -1.1179262,58.1711419 -1.1179262,53.1768293 C-1.1179262,48.1825167 2.81811857,44.1185011 7.69306164,44.1185011 C12.5680047,44.1185011 16.5040495,48.1825167 16.5040495,53.1768293 C16.5040495,58.1711419 12.5680047,62.2351575 7.69306164,62.2351575 Z M7.69306164,59.8282572 C11.2211726,59.8282572 14.0971491,56.8587754 14.0971491,53.1768293 C14.0971491,49.4948832 11.2211726,46.5254014 7.69306164,46.5254014 C4.16495063,46.5254014 1.28897413,49.4948832 1.28897413,53.1768293 C1.28897413,56.8587754 4.16495063,59.8282572 7.69306164,59.8282572 Z" id="Oval" fill="#E88024" fill-rule="nonzero"></path>
            </g>
            <g id="Group" opacity="0.9" transform="translate(250.472000, 127.514000)" fill="#6D6E71" fill-rule="nonzero">
                <path d="M13.984,12.896 L14.868,12.896 L14.868,5.764 L16.039,7.854 L16.593,6.994 C15.551,5.639 14.976,4.909 14.868,4.805 L14.878,4.031 L16.288,4.031 L16.288,3.171 L14.878,3.171 L14.868,0.737 L13.984,0.737 L13.984,3.17 L12.297,3.17 L12.297,4.03 L13.876,4.03 C13.78,4.996 12.551,7.76 11.913,8.431 C11.925,8.434 12.068,8.785 12.343,9.484 C13.083,8.156 13.478,7.359 13.983,5.887 L13.983,12.896 L13.984,12.896 Z M0.242,12.948 L0.242,1.498 L9.205,1.498 L9.205,12.948 L8.187,12.948 L8.187,12.098 L1.243,12.098 L1.243,12.948 L0.242,12.948 Z M8.277,2.31 L1.243,2.31 L1.243,4.585 L8.277,4.585 L8.277,2.31 Z M8.254,5.415 L1.266,5.415 L1.266,7.757 L8.254,7.757 L8.254,5.415 Z M8.24,8.678 L1.28,8.678 L1.28,11.148 L8.24,11.148 L8.24,8.678 Z M17.01,1.499 L24.344,1.499 L24.344,2.299 L22.143,2.299 L22.143,3.292 L24.125,3.292 L24.125,6.408 L17.322,6.408 L17.322,3.292 L19.323,3.292 L19.323,2.298 L17.01,2.298 L17.01,1.498 L17.01,1.499 Z M21.357,2.359 L20.067,2.359 L20.067,3.309 L21.357,3.309 L21.357,2.359 Z M22.114,4.065 L22.114,5.685 L23.267,5.685 L23.267,4.065 L22.114,4.065 Z M21.342,4.055 L20.119,4.055 L20.119,5.682 L21.342,5.682 L21.342,4.055 Z M19.382,4.034 L18.208,4.034 L18.208,5.697 L19.382,5.697 L19.382,4.034 Z M23.756,7.036 L23.756,7.809 L17.609,7.809 L17.609,7.036 L23.756,7.036 Z M24.344,8.821 L24.344,9.561 L21.049,9.561 L21.049,12.891 L20.233,12.891 L20.233,9.561 L17.021,9.561 L17.021,8.821 L24.344,8.821 Z" id="Shape"></path>
                <path d="M22.05,10.69 C22.329,10.41 22.518,10.232 22.617,10.154 C22.963,10.416 24.157,11.582 24.592,12.239 C24.442,12.401 24.227,12.613 23.947,12.875 C23.732,12.451 23.1,11.723 22.051,10.69 L22.05,10.69 Z M18.722,9.883 C19.012,10.13 19.214,10.302 19.329,10.397 C18.609,11.353 17.884,12.097 17.156,12.631 C16.9574744,12.4125062 16.76959,12.1845754 16.593,11.948 C17.741,11.018 18.451,10.33 18.723,9.883 L18.722,9.883 Z" id="Shape"></path>
            </g>
            <g id="Group" transform="translate(24.472000, 130.514000)" fill="#2A3052" fill-rule="nonzero">
                <path d="M18.775,0.314 L20.068,0.459 L19.535,3.786 C19.707,3.799 20.593,3.799 22.193,3.786 C22.238,6.228 21.733,9.874 20.706,11.968 C21.81,13.155 22.505,13.961 22.79,14.386 L21.928,15.346 L20.158,13.233 C19.127,14.926 18.228,16.105 17.465,16.771 C17.338,16.588 17.076,16.255 16.679,15.772 C17.679,14.705 18.665,13.614 19.252,12.332 L16.972,10.06 L18.119,4.997 L16.679,4.997 L16.679,3.787 L18.292,3.787 L18.775,0.314 Z M21.02,5.005 L19.39,5.005 C19.04,6.782 18.69,8.327 18.339,9.641 C18.946,10.231 19.432,10.711 19.799,11.077 C20.424,9.744 21.021,5.953 21.021,5.005 L21.02,5.005 Z M26.691,0.337 L27.881,0.745 C26.514,3.582 25.452,5.424 24.696,6.269 C28.144,5.969 30.042,5.759 30.391,5.641 C29.546,4.039 29.056,3.141 28.919,2.95 L30.031,2.41 C31.231,4.475 32.145,6.182 32.774,7.533 L31.565,8.143 L30.936,6.754 C26.577,7.256 23.939,7.516 23.023,7.534 C22.9633298,7.13812396 22.8963183,6.74338933 22.822,6.35 C23.854,5.782 25.144,3.777 26.692,0.337 L26.691,0.337 Z M30.557,16.771 L30.557,15.674 L25.082,15.674 L25.082,16.771 L23.825,16.771 L23.825,9.164 L31.771,9.164 L31.771,16.771 L30.557,16.771 Z M30.547,10.335 L25.113,10.335 L25.113,14.433 L30.548,14.433 L30.548,10.335 L30.547,10.335 Z M1.062,2.482 L1.062,1.565 L14.782,1.565 L14.782,2.482 L12.17,2.482 L12.17,7.342 L15.91,7.342 L15.91,8.753 L12.17,8.753 L12.17,16.41 L10.715,16.41 L10.715,8.753 L5.524,8.742 C5.135,15.279 1.641,16.41 1.204,16.697 C0.896,16.294 0.644,15.927 0.449,15.592 C2.153,14.286 4.089,12.829 4.089,8.742 C2.634,8.749 1.009,8.78 0.055,8.753 L0.055,7.342 L4.09,7.342 L4.09,2.482 L1.062,2.482 Z M10.678,2.738 L5.667,2.738 L5.667,7.31 L10.678,7.31 L10.678,2.738 Z" id="Shape"></path>
            </g>
            <path d="M245.528,103.614 L245.528,104.838 C243.692,105.504 241.622,106.044 239.282,106.476 L239.12,105.216 C241.568,104.82 243.692,104.28 245.528,103.614 Z M242.198,90.654 L243.404,91.122 C242.486,93.462 241.55,95.334 240.614,96.738 C241.468334,96.6283245 242.320491,96.5023014 243.17,96.36 C243.512,95.712 243.872,95.046 244.232,94.362 L245.366,94.776 C243.728,97.818 242.36,99.978 241.262,101.274 C242.63,101.004 243.98,100.644 245.312,100.194 L245.312,101.346 C243.368,102.012 241.496,102.462 239.696,102.696 L239.354,101.526 C239.588,101.418 239.786,101.292 239.948,101.148 C240.632,100.446 241.478,99.258 242.486,97.566 C241.46,97.728 240.434,97.872 239.39,98.016 L239.066,96.828 C239.264,96.738 239.444,96.576 239.606,96.342 C240.614,94.686 241.478,92.796 242.198,90.654 Z M245.312,92.94 L249.614,92.94 L249.614,90.762 L250.928,90.762 L250.928,92.94 L255.212,92.94 L255.212,94.2 L250.928,94.2 L250.928,96.864 L254.69,96.864 L254.69,98.124 L245.906,98.124 L245.906,96.864 L249.614,96.864 L249.614,94.2 L245.312,94.2 L245.312,92.94 Z M254.168,99.924 L254.168,107.16 L252.908,107.16 L252.908,106.296 L247.76,106.296 L247.76,107.16 L246.482,107.16 L246.482,99.924 L254.168,99.924 Z M247.76,105.072 L252.908,105.072 L252.908,101.148 L247.76,101.148 L247.76,105.072 Z M257.408,92.562 L264.446,92.562 L264.446,90.762 L265.778,90.762 L265.778,92.562 L272.78,92.562 L272.78,93.804 L265.778,93.804 L265.778,95.568 L271.448,95.568 L271.448,100.662 L266.876,100.662 C268.172,102.498 270.368,104.118 273.428,105.558 L272.546,106.674 C269.36,104.892 267.128,102.894 265.832,100.662 L265.778,100.662 L265.778,107.196 L264.446,107.196 L264.446,100.662 L264.392,100.662 C263.024,103.11 260.756,105.126 257.57,106.71 L256.814,105.522 C259.802,104.262 261.98,102.642 263.33,100.662 L258.812,100.662 L258.812,95.568 L264.446,95.568 L264.446,93.804 L257.408,93.804 L257.408,92.562 Z M270.152,99.474 L270.152,96.792 L265.778,96.792 L265.778,99.474 L270.152,99.474 Z M264.446,99.474 L264.446,96.792 L260.108,96.792 L260.108,99.474 L264.446,99.474 Z" id="Shape" fill="#2A3052" fill-rule="nonzero"></path>
            <path d="M150.375,164.075 L150.375,171.3 L149.075,171.3 L149.075,165.425 L145.6,165.425 L145.6,171.25 L144.275,171.25 L144.275,164.075 L150.375,164.075 Z M147.35,172.35 C147.25,172.6 147.15,172.825 147.05,173.025 C146.5,174.025 145.625,174.8 144.375,175.35 L143.625,174.175 C144.775,173.65 145.575,172.975 146.05,172.175 C146.45,171.3 146.675,170.175 146.725,168.775 L146.725,166.6 L147.925,166.6 L147.925,168.775 C147.9,169.625 147.825,170.4 147.7,171.075 C148.65,171.9 149.45,172.725 150.1,173.55 L149.15,174.5 C148.675,173.8 148.075,173.1 147.35,172.35 Z M136.45,154.075 L146.75,154.075 C146.5,153.525 146.25,153.05 145.975,152.6 L147.775,152.3 C148.025,152.825 148.25,153.425 148.45,154.075 L158.55,154.075 L158.55,155.375 L140.375,155.375 L140.375,156.675 L156.85,156.675 L156.85,157.95 L138.7,157.95 L138.7,155.375 L136.45,155.375 L136.45,154.075 Z M139.4,159.125 L155.525,159.125 L155.525,162.85 L139.4,162.85 L139.4,159.125 Z M153.775,161.675 L153.775,160.3 L141.15,160.3 L141.15,161.675 L153.775,161.675 Z M139.025,168.475 C139,169.1 138.95,169.7 138.9,170.25 L141.65,170.25 L141.65,168.475 L139.025,168.475 Z M141.65,167.3 L141.65,165.5 L139.025,165.5 L139.025,167.3 L141.65,167.3 Z M138.725,171.425 C138.425,173.05 137.875,174.425 137.1,175.575 L135.975,174.55 C137.025,172.95 137.55,170.95 137.575,168.5 L137.575,164.125 L143.075,164.125 L143.075,173.75 C143.075,174.875 142.475,175.45 141.3,175.45 L140.275,175.45 L139.9,174.1 C140.225,174.15 140.55,174.175 140.85,174.175 C141.375,174.175 141.65,173.85 141.65,173.25 L141.65,171.425 L138.725,171.425 Z M157.625,175.175 L156.75,175.175 C155.85,175.175 155.425,174.675 155.425,173.725 L155.425,165.55 L153.05,165.55 L153.05,168.125 C153.05,169.975 152.925,171.4 152.675,172.4 C152.4,173.4 151.825,174.45 150.95,175.55 L149.825,174.575 C150.575,173.675 151.075,172.85 151.325,172.075 C151.575,171.275 151.7,169.95 151.7,168.125 L151.7,164.125 L156.775,164.125 L156.775,173.3 C156.775,173.675 156.925,173.875 157.25,173.875 L157.4,173.875 C157.55,173.875 157.675,173.75 157.75,173.5 C157.825,173.25 157.9,172.425 157.975,171 L159.125,171.4 C158.975,173.1 158.825,174.15 158.65,174.575 C158.45,174.975 158.125,175.175 157.625,175.175 Z M154.05,167.775 C154.5,168.775 154.925,169.825 155.275,170.975 L154.325,171.4 C153.95,170.15 153.55,169.05 153.1,168.1 L154.05,167.775 Z M164.23584,167.98291 L162.197266,167.98291 L162.038574,155.226562 L164.406738,155.226562 L164.23584,167.98291 Z M161.953125,171.864746 C161.953125,171.498533 162.065022,171.191326 162.288818,170.943115 C162.512615,170.694904 162.844236,170.570801 163.283691,170.570801 C163.723147,170.570801 164.056802,170.694904 164.284668,170.943115 C164.512534,171.191326 164.626465,171.498533 164.626465,171.864746 C164.626465,172.230959 164.512534,172.534097 164.284668,172.77417 C164.056802,173.014243 163.723147,173.134277 163.283691,173.134277 C162.844236,173.134277 162.512615,173.014243 162.288818,172.77417 C162.065022,172.534097 161.953125,172.230959 161.953125,171.864746 Z" id="赢!" fill="#FFFFFF" fill-rule="nonzero"></path>
        </g>
    </g>
</svg>

<svg width="299" height="197" xmlns="http://www.w3.org/2000/svg"><g fill="none" fill-rule="evenodd"><path fill="#F1F2F2" d="M0 0h299v197H0z"/><path d="M1.987 1.98v193.04h295.026V1.98H1.987zM299 0v197H0V0h299z" fill="#C2C2C2" fill-rule="nonzero"/><path d="M4 54.067v-1.204h290v1.204H4zm0 22.326v-1.204h290v1.204H4zm0 18.604v-1.204h290v1.204H4zm0 40.93v-1.203h290v1.204H4zm0 18.605v-1.204h290v1.204H4zm0 22.326v-1.204h290v1.204H4zM38.72 33h1.2v160h-1.2V33zm37.18 0h1.2v160h-1.2V33zm37.18 0h1.2v160h-1.2V33zm33.46 0h1.201v160h-1.2V33zm37.18 0h1.2v160h-1.2V33zm37.18 0h1.2v160h-1.2V33zm37.18 0h1.2v160h-1.2V33z" fill="#DFDEDE" fill-rule="nonzero"/><path fill="#2A3052" fill-rule="nonzero" d="M2.906 116.82v-1.215h291.607v1.215z"/><path fill="#C2C2C2" fill-rule="nonzero" d="M.8 34.78v-2.43h293.563v2.43z"/><path d="M187.24 147.191h-35.181l-5.419-8.223-5.418 8.223h-35.18c-2.635 0-4.742 2.14-4.742 4.807v24.82c0 2.666 2.145 4.807 4.741 4.807h81.236c2.634 0 4.741-2.14 4.741-4.807v-24.82c0-2.666-2.145-4.807-4.778-4.807z" fill="#E88024"/><path d="M27.784 16.237h-1.088v5.406a10.573 10.573 0 0 0 1.632-.833l.306 1.615c-1.003.544-2.159.986-3.451 1.326l-.731-1.547c.408-.153.629-.374.629-.68v-5.287h-.986v-1.615h.986V8.094h1.615v6.528h4.573v1.615h-2.006c.153 2.55.918 4.709 2.278 6.477l-1.207 1.19c-1.547-2.176-2.397-4.726-2.55-7.667zm-6.511-2.244l-.17 2.278h2.72c0 2.873-.085 4.794-.255 5.763-.17.986-.918 1.513-2.244 1.615-.306 0-.629-.034-.952-.068l-.408-1.564c.306.034.629.068.969.068.612 0 .952-.272 1.054-.799.085-.544.136-1.666.136-3.4h-2.754l.391-5.542h2.295v-2.142h-2.431V8.57h4.148v5.423h-2.499zM17.176 8.23c.935.816 1.734 1.615 2.38 2.414l-1.224 1.224c-.561-.782-1.343-1.615-2.346-2.499l1.19-1.139zm-.374 4.063c.918.816 1.7 1.649 2.346 2.465l-1.207 1.207c-.544-.782-1.326-1.615-2.329-2.533l1.19-1.139zm.85 4.573l1.53.612a78.713 78.713 0 0 1-1.887 6.103l-1.564-.68a67.288 67.288 0 0 0 1.921-6.035zm12.58-7.922l1.241 1.003c-1.071 1.802-2.329 3.111-3.774 3.961l-.884-1.224c1.326-.833 2.465-2.074 3.417-3.74z" fill="#000" fill-rule="nonzero"/><g transform="translate(38 63)"><path d="M34.145 31.28L8.915 54.506a1.805 1.805 0 0 1-2.444-2.656L32.976 27.45a1.805 1.805 0 0 1 2.5.054l34.551 34.651 31.793-45.67a1.805 1.805 0 0 1 2.81-.19l45.25 49.217L188.023-.245a1.805 1.805 0 0 1 2.497-.637l24.47 14.84a1.805 1.805 0 0 1-1.871 3.087L190.222 3.159l-38.45 66.286a1.805 1.805 0 0 1-2.89.316l-45.386-49.365-31.74 45.595a1.805 1.805 0 0 1-2.76.243L34.145 31.281z" fill="#2A3052" fill-rule="nonzero"/><ellipse fill="#FFF" opacity=".6" cx="214.055" cy="15.501" rx="7.608" ry="7.855"/><path d="M214.055 24.56c-4.875 0-8.811-4.064-8.811-9.059 0-4.994 3.936-9.058 8.81-9.058 4.876 0 8.812 4.064 8.812 9.058 0 4.995-3.936 9.059-8.811 9.059zm0-2.407c3.528 0 6.404-2.97 6.404-6.652s-2.876-6.651-6.404-6.651-6.404 2.97-6.404 6.651c0 3.682 2.876 6.652 6.404 6.652z" fill="#E88024" fill-rule="nonzero"/><ellipse fill="#FFF" opacity=".6" cx="7.692" cy="53.177" rx="7.608" ry="7.855"/><path d="M7.693 62.235c-4.875 0-8.81-4.064-8.81-9.058s3.935-9.058 8.81-9.058 8.811 4.064 8.811 9.058-3.936 9.058-8.81 9.058zm0-2.407c3.528 0 6.404-2.97 6.404-6.651 0-3.682-2.876-6.652-6.404-6.652s-6.404 2.97-6.404 6.652 2.876 6.651 6.404 6.651z" fill="#E88024" fill-rule="nonzero"/></g><g opacity=".9" fill="#6D6E71" fill-rule="nonzero"><path d="M264.456 140.41h.884v-7.132l1.171 2.09.554-.86c-1.042-1.355-1.617-2.085-1.725-2.189l.01-.774h1.41v-.86h-1.41l-.01-2.434h-.884v2.433h-1.687v.86h1.579c-.096.966-1.325 3.73-1.963 4.401.012.003.155.354.43 1.053.74-1.328 1.135-2.125 1.64-3.597v7.009h.001zm-13.742.052v-11.45h8.963v11.45h-1.018v-.85h-6.944v.85h-1.001zm8.035-10.638h-7.034v2.275h7.034v-2.275zm-.023 3.105h-6.988v2.342h6.988v-2.342zm-.014 3.263h-6.96v2.47h6.96v-2.47zm8.77-7.179h7.334v.8h-2.201v.993h1.982v3.116h-6.803v-3.116h2.001v-.994h-2.313v-.8.001zm4.347.86h-1.29v.95h1.29v-.95zm.757 1.706v1.62h1.153v-1.62h-1.153zm-.772-.01h-1.223v1.627h1.223v-1.627zm-1.96-.021h-1.174v1.663h1.174v-1.663zm4.374 3.002v.773h-6.147v-.773h6.147zm.588 1.785v.74h-3.295v3.33h-.816v-3.33h-3.212v-.74h7.323z"/><path d="M272.522 138.204c.279-.28.468-.458.567-.536.346.262 1.54 1.428 1.975 2.085-.15.162-.365.374-.645.636-.215-.424-.847-1.152-1.896-2.185h-.001zm-3.328-.807c.29.247.492.419.607.514-.72.956-1.445 1.7-2.173 2.234a9.192 9.192 0 0 1-.563-.683c1.148-.93 1.858-1.618 2.13-2.065h-.001z"/></g><path d="M43.247 130.828l1.293.145-.533 3.327c.172.013 1.058.013 2.658 0 .045 2.442-.46 6.088-1.487 8.182 1.104 1.187 1.799 1.993 2.084 2.418l-.862.96-1.77-2.113c-1.031 1.693-1.93 2.872-2.693 3.538a19.044 19.044 0 0 0-.786-.999c1-1.067 1.986-2.158 2.573-3.44l-2.28-2.272 1.147-5.063h-1.44v-1.21h1.613l.483-3.473zm2.245 4.691h-1.63c-.35 1.777-.7 3.322-1.051 4.636.607.59 1.093 1.07 1.46 1.436.625-1.333 1.222-5.124 1.222-6.072h-.001zm5.671-4.668l1.19.408c-1.367 2.837-2.429 4.679-3.185 5.524 3.448-.3 5.346-.51 5.695-.628-.845-1.602-1.335-2.5-1.472-2.691l1.112-.54c1.2 2.065 2.114 3.772 2.743 5.123l-1.209.61-.629-1.389c-4.359.502-6.997.762-7.913.78a32.36 32.36 0 0 0-.201-1.184c1.032-.568 2.322-2.573 3.87-6.013h-.001zm3.866 16.434v-1.097h-5.475v1.097h-1.257v-7.607h7.946v7.607h-1.214zm-.01-6.436h-5.434v4.098h5.435v-4.098h-.001zm-29.485-7.853v-.917h13.72v.917h-2.612v4.86h3.74v1.411h-3.74v7.657h-1.455v-7.657l-5.191-.011c-.389 6.537-3.883 7.668-4.32 7.955-.308-.403-.56-.77-.755-1.105 1.704-1.306 3.64-2.763 3.64-6.85-1.455.007-3.08.038-4.034.011v-1.411h4.035v-4.86h-3.028zm9.616.256h-5.011v4.572h5.011v-4.572zM245.528 103.614v1.224c-1.836.666-3.906 1.206-6.246 1.638l-.162-1.26c2.448-.396 4.572-.936 6.408-1.602zm-3.33-12.96l1.206.468c-.918 2.34-1.854 4.212-2.79 5.616a67.48 67.48 0 0 0 2.556-.378c.342-.648.702-1.314 1.062-1.998l1.134.414c-1.638 3.042-3.006 5.202-4.104 6.498 1.368-.27 2.718-.63 4.05-1.08v1.152c-1.944.666-3.816 1.116-5.616 1.35l-.342-1.17c.234-.108.432-.234.594-.378.684-.702 1.53-1.89 2.538-3.582-1.026.162-2.052.306-3.096.45l-.324-1.188c.198-.09.378-.252.54-.486 1.008-1.656 1.872-3.546 2.592-5.688zm3.114 2.286h4.302v-2.178h1.314v2.178h4.284v1.26h-4.284v2.664h3.762v1.26h-8.784v-1.26h3.708V94.2h-4.302v-1.26zm8.856 6.984v7.236h-1.26v-.864h-5.148v.864h-1.278v-7.236h7.686zm-6.408 5.148h5.148v-3.924h-5.148v3.924zm9.648-12.51h7.038v-1.8h1.332v1.8h7.002v1.242h-7.002v1.764h5.67v5.094h-4.572c1.296 1.836 3.492 3.456 6.552 4.896l-.882 1.116c-3.186-1.782-5.418-3.78-6.714-6.012h-.054v6.534h-1.332v-6.534h-.054c-1.368 2.448-3.636 4.464-6.822 6.048l-.756-1.188c2.988-1.26 5.166-2.88 6.516-4.86h-4.518v-5.094h5.634v-1.764h-7.038v-1.242zm12.744 6.912v-2.682h-4.374v2.682h4.374zm-5.706 0v-2.682h-4.338v2.682h4.338z" fill="#2A3052" fill-rule="nonzero"/><path d="M150.375 164.075v7.225h-1.3v-5.875H145.6v5.825h-1.325v-7.175h6.1zm-3.025 8.275c-.1.25-.2.475-.3.675-.55 1-1.425 1.775-2.675 2.325l-.75-1.175c1.15-.525 1.95-1.2 2.425-2 .4-.875.625-2 .675-3.4V166.6h1.2v2.175c-.025.85-.1 1.625-.225 2.3.95.825 1.75 1.65 2.4 2.475l-.95.95c-.475-.7-1.075-1.4-1.8-2.15zm-10.9-18.275h10.3c-.25-.55-.5-1.025-.775-1.475l1.8-.3c.25.525.475 1.125.675 1.775h10.1v1.3h-18.175v1.3h16.475v1.275H138.7v-2.575h-2.25v-1.3zm2.95 5.05h16.125v3.725H139.4v-3.725zm14.375 2.55V160.3H141.15v1.375h12.625zm-14.75 6.8a34.912 34.912 0 0 1-.125 1.775h2.75v-1.775h-2.625zm2.625-1.175v-1.8h-2.625v1.8h2.625zm-2.925 4.125c-.3 1.625-.85 3-1.625 4.15l-1.125-1.025c1.05-1.6 1.575-3.6 1.6-6.05v-4.375h5.5v9.625c0 1.125-.6 1.7-1.775 1.7h-1.025l-.375-1.35c.325.05.65.075.95.075.525 0 .8-.325.8-.925v-1.825h-2.925zm18.9 3.75h-.875c-.9 0-1.325-.5-1.325-1.45v-8.175h-2.375v2.575c0 1.85-.125 3.275-.375 4.275-.275 1-.85 2.05-1.725 3.15l-1.125-.975c.75-.9 1.25-1.725 1.5-2.5.25-.8.375-2.125.375-3.95v-4h5.075v9.175c0 .375.15.575.475.575h.15c.15 0 .275-.125.35-.375.075-.25.15-1.075.225-2.5l1.15.4c-.15 1.7-.3 2.75-.475 3.175-.2.4-.525.6-1.025.6zm-3.575-7.4c.45 1 .875 2.05 1.225 3.2l-.95.425c-.375-1.25-.775-2.35-1.225-3.3l.95-.325zm10.186.208h-2.039l-.158-12.756h2.368l-.171 12.756zm-2.283 3.882c0-.366.112-.674.336-.922.224-.248.555-.372.995-.372.44 0 .773.124 1 .372.229.248.342.556.342.922s-.113.67-.341.91c-.228.24-.562.36-1.001.36-.44 0-.771-.12-.995-.36-.224-.24-.336-.544-.336-.91z" fill="#FFF" fill-rule="nonzero"/></g></svg>
